X: 278
T: Andrews Medieval Tune
C:Andrew Kordas
B: tunes
M:4/4
Q: 1/4=120
K:Am
V:1 
"Am"E2EE E2EE|A2AA "G7"G2F2|"Am"E8-|E8|
"Am"E2EE E2EE|A2AA "G"G2F2|"Am"E8-|E8|
"Dm"D2DD D2DD|"Em"E6E2|"C"C2CCC2CC|"Dm"D8|
"Am"A,2A,A,A,2A,A,|"Em"B,2B,B,"F"C2"Em"B,2|"Am"A,8-|A,8||     
W: 
% abcbook-tune_id 62a563c77fa98a0c5b8fcb81
% abcbook-tune_composer_id 
% abcbook-boost 16
% abcbook-difficulty 1
% abcbook-tags andrew kordas,steve ryan,no youtube available
% abcbook-tablature 
% abcbook-transpose 
% abcbook-tuning 
% abcbook-lastupdated 1675500990196
% abcbook-soundfonts 
% abcbook-repeats 3


